X: 2
T: Drag Her Round The Road
R: reel
M: 4/4
L: 1/8
K: Emin
|BEED E2DE|GEDB, D2B,D|GEED E2DE|GABG ABGA|
BE~E2 B,E~E2|GEDB, D2B,D|GEED E2DE|GABG AGEF||
G2GF GBdc|B2BA BcBA|GFGB dedB|(3ABA GB A2(3DEF|
G2FA GBdc|B2Ac BcBA|GFGB dedB|(3ABA GB A4||

